X:1
T:Prelude Fight
T:Prelude Fight
T:Prince of Persia: The Sands of Time
T:Stuart Chatwood
T:cover by Heaven
C:Stuart Chatwood
Z:cover by Heaven
%%score { 1 | 2 }
L:1/8
M:3/4
K:F
V:1 treble nm="Piano" snm="Pno."
V:2 bass 
V:1
!mf! z A GA B^c | [EG^c]6 | de fd/^c/ AG |!f! [EA]2 [EA]2 [FB][DG] | [EA]2 [EA] [FB]2 [DG] | %5
 [EA]2 [EA]2 [FB][DG] | [EA]2 [EA] [FB]2 [DG] | AG AB ^cd | ef d e2 z | AG AB ^cd | ef d e2 z | %11
 AG AB ^cd | ef d e2 z | GF GA Bd | ^c2 d c2 B | [EA]2 [EA]2 [FB][DG] | [EA]2 [EA] [FB]2 [DG] | %17
 [EA]2 [EA]2 [FB][DG] | [EA]2 [EA] [FB]2 [G^c] | [Aa]g gf fe | ef d e2 z | gf fe ed | [E^c]6 |: %23
 [da][^cg] [cg][Bf] [Bf][Ae] | [Ae][Bf] [Gd] [Ae]2 z | [^cg][Bf] [Bf][Ae] [Ae][Gd] | [EA^c]6 :| %27
 ag gf fe | ef d e2 z | gf fe ed | [A^c]2 [Bd]2 BG | [EA]2 [EA]2 [FB][DG] | [EA]2 [EA] [FB]2 [DG] | %33
 [EA]2 [EA]2 [FB][DG] | [EA]3 G>AB | ^c2 [EA]2 [FB][DG] | [EA]2 [EA]G>AB | d ^c2 [EA] [FB][DG] | %38
 [EA]3 G>AB | ^c2 [EA]2 [FB][DG] | [EA]2 [EA]G>AB | ed ^c[Aa] [Bb][Gg] | %42
 [Aa]2 [Aa] [Bb]2 [^c^c'] |: z6 | z6 :| ^c2 B/A/ G3 | [DAd]6 |] %47
V:2
 z6 | [A,,A,]6 | z2 [B,,B,]2 [G,,G,]2 | [A,,E,A,] z [A,,E,A,]2 [B,,F,B,][G,,D,G,] | %4
 [A,,E,A,] z [A,,E,A,] [B,,F,B,]2 [G,,D,G,] | [A,,E,A,] z [A,,E,A,]2 [B,,F,B,][G,,D,G,] | %6
 [A,,E,A,] z [A,,E,A,] [B,,F,B,]2 [G,,D,G,] | [A,,E,A,]4 z [G,,D,G,] | [A,,E,A,]4 z [B,,F,B,] | %9
 [A,,E,A,]4 z [G,,D,G,] | [A,,E,A,]4 z [B,,F,B,] | [A,,E,A,]4 z [G,,D,G,] | %12
 [A,,E,A,]4 z [B,,F,B,] | [G,,D,G,]4 z [F,,C,F,] | [G,,D,G,]2 [G,,D,G,]3 [G,,D,G,] | %15
 [A,,E,A,] z [A,,E,A,]2 [B,,F,B,][G,,D,G,] | [A,,E,A,] z [A,,E,A,] [B,,F,B,]2 [G,,D,G,] | %17
 [A,,E,A,] z [A,,E,A,]2 [B,,F,B,][G,,D,G,] | [A,,E,A,] z [A,,E,A,] [B,,F,B,]2 [G,,D,G,] | %19
 [A,,E,A,]2 [A,,E,A,]2 [G,,D,G,][G,,D,G,] | [A,,E,A,]2 [A,,E,A,] [B,,F,B,]2 [G,,D,G,] | %21
 [G,,D,G,]2 [G,,D,G,]2 [F,,C,F,][E,,B,,E,] | [G,,D,G,]6 |: %23
 [A,,E,A,]2 [A,,E,A,]2 [G,,D,G,][G,,D,G,] | [A,,E,A,]2 [A,,E,A,] [B,,F,B,]2 [G,,D,G,] | %25
 [G,,D,G,]2 [G,,D,G,]2 [F,,C,F,][E,,B,,E,] | [G,,D,G,]6 :| %27
 [A,,E,A,]2 [A,,E,A,]2 [G,,D,G,][G,,D,G,] | [A,,E,A,]2 [A,,E,A,] [B,,F,B,]2 [G,,D,G,] | %29
 [G,,D,G,]2 [G,,D,G,]2 [F,,C,F,][E,,B,,E,] | [G,,D,G,]2 [G,,D,G,]3 [G,,D,G,] | %31
 [A,,E,A,] z [A,,E,A,]2 [B,,F,B,][G,,D,G,] | [A,,E,A,] z [A,,E,A,] [B,,F,B,]2 [G,,D,G,] | %33
 [A,,E,A,] z [A,,E,A,]2 [B,,F,B,][G,,D,G,] | [A,,E,A,] z [A,,E,A,] [B,,F,B,]2 [G,,D,G,] | %35
 [A,,E,A,] z [A,,E,A,]2 [B,,F,B,][G,,D,G,] | [A,,E,A,] z [A,,E,A,] [B,,F,B,]2 [G,,D,G,] | %37
 [A,,E,A,] z [A,,E,A,]2 [B,,F,B,][G,,D,G,] | [A,,E,A,] z [A,,E,A,] [B,,F,B,]2 [G,,D,G,] | %39
 [A,,E,A,] z [A,,E,A,]2 [B,,F,B,][G,,D,G,] | [A,,E,A,] z [A,,E,A,] [B,,F,B,]2 [G,,D,G,] | %41
 [A,,E,A,] z [A,,E,A,]2 [B,,F,B,][G,,D,G,] | [A,,E,A,] z [A,,E,A,] [B,,F,B,]2 [G,,D,G,] |: %43
 [A,,E,A,] z [A,,E,A,]2 [B,,F,B,][G,,D,G,] | [A,,E,A,] z [A,,E,A,] [B,,F,B,]2 [G,,D,G,] :| %45
 z4 z [G,,G,]/[G,,G,]/ | [D,,A,,D,]6 |] %47

